X:1
T:Title
%%score { 1 | 2 }
L:1/8
M:4/4
K:F
V:1 treble nm="Grand Piano"
V:2 bass 
V:1
 z4 z2 z[Q:1/4=100] C | CFFF F3 F | E2 F2 [CEG]3 C | C[CEG][CEG][CEG] [CEG]3 [B,EG] | %4
 [A,F]2 [CEG]2 A3 A | AAAA A3 A | G2 A2 B3 [EG] | AAAB c3 [CF] |[M:7/8] [A,CF]2 [G,CE]2 [A,CF]2 z | %9
[M:1/8] [A,C] |[M:4/4] [A,CF]2 [B,DF]2 [A,CF]3 [A,F] | [CEG]2 [=B,FG]2 [EG]3 [EG] | AAAB c3 [CF] | %13
[M:7/8] [A,CF]2 [G,CE]2 [F,A,CF]3 |] %14
V:2
 z4 z2 z [F,A,] | [F,A,][F,A,C][F,A,C][F,A,C] [F,A,C]3 [A,C] | [G,B,C]2 [F,A,C]2 C,3 C, | %3
 C,C,C,C, C,3 C, | D,2 C,2[K:treble] [F,CF]3 [F,CF] | [F,CF][F,CF][F,CF][F,CF] [F,CF]3 [F,CF] | %6
 [B,CE]2 [A,CF]2[K:bass] [G,CE]3 [C,C] | [F,CF][F,CF][F,F][F,G,F] [F,A,F]3 A,, | %8
[M:7/8] C,2 C,2 F,,2 z |[M:1/8] F, |[M:4/4] F,2 B,,2 F,3 F, | C,2 G,,2 [C,C]3 [C,C] | %12
 [F,CF][F,CF][F,F][F,G,F] [F,A,F]3 A,, |[M:7/8] C,2 C,2 F,,3 |] %14

